app/assets/images/heroicons/solid/arrow-left-start-on-rectangle.svg

<svg width="24" height="24" viewBox="0 0 24 24" fill="none" xmlns="http://www.w3.org/2000/svg">
<path fill-rule="evenodd" clip-rule="evenodd" d="M16.5 3.75C17.3284 3.75 18 4.42157 18 5.25V18.75C18 19.5784 17.3284 20.25 16.5 20.25H10.5C9.67157 20.25 9 19.5784 9 18.75V15C9 14.5858 8.66421 14.25 8.25 14.25C7.83579 14.25 7.5 14.5858 7.5 15V18.75C7.5 20.4069 8.84315 21.75 10.5 21.75H16.5C18.1569 21.75 19.5 20.4069 19.5 18.75V5.25C19.5 3.59315 18.1569 2.25 16.5 2.25L10.5 2.25C8.84315 2.25 7.5 3.59315 7.5 5.25V9C7.5 9.41422 7.83579 9.75 8.25 9.75C8.66421 9.75 9 9.41422 9 9V5.25C9 4.42157 9.67157 3.75 10.5 3.75L16.5 3.75ZM5.78033 8.46967C5.48744 8.17678 5.01256 8.17678 4.71967 8.46967L1.71967 11.4697C1.42678 11.7626 1.42678 12.2374 1.71967 12.5303L4.71967 15.5303C5.01256 15.8232 5.48744 15.8232 5.78033 15.5303C6.07322 15.2374 6.07322 14.7626 5.78033 14.4697L4.06066 12.75L15 12.75C15.4142 12.75 15.75 12.4142 15.75 12C15.75 11.5858 15.4142 11.25 15 11.25L4.06066 11.25L5.78033 9.53033C6.07322 9.23744 6.07322 8.76256 5.78033 8.46967Z" fill="#0F172A"/>
</svg>

<svg xmlns="http://www.w3.org/2000/svg" viewBox="0 0 24 24" fill="currentColor" aria-hidden="true" data-slot="icon">
  <path fill-rule="evenodd" d="M16.5 3.75a1.5 1.5 0 0 1 1.5 1.5v13.5a1.5 1.5 0 0 1-1.5 1.5h-6a1.5 1.5 0 0 1-1.5-1.5V15a.75.75 0 0 0-1.5 0v3.75a3 3 0 0 0 3 3h6a3 3 0 0 0 3-3V5.25a3 3 0 0 0-3-3h-6a3 3 0 0 0-3 3V9A.75.75 0 1 0 9 9V5.25a1.5 1.5 0 0 1 1.5-1.5h6ZM5.78 8.47a.75.75 0 0 0-1.06 0l-3 3a.75.75 0 0 0 0 1.06l3 3a.75.75 0 0 0 1.06-1.06l-1.72-1.72H15a.75.75 0 0 0 0-1.5H4.06l1.72-1.72a.75.75 0 0 0 0-1.06Z" clip-rule="evenodd"/>
</svg>
